packages/match-logos/mono/svg/caremessage.svg

<svg fill="none" height="28" viewBox="0 0 195 28" width="195" xmlns="http://www.w3.org/2000/svg" xmlns:xlink="http://www.w3.org/1999/xlink"><clipPath id="a"><path d="m0 0h194.6v28h-194.6z"/></clipPath><g clip-path="url(#a)"><path d="m0 14.3864c0-4.5374 3.2004-7.8624 7.7686-7.8624 2.9218 0 4.6921 1.2432 5.7491 2.674l-2.142 1.9894c-.84-1.183-1.988-1.7731-3.451-1.7731-2.7328 0-4.536 2.051-4.536 4.97s1.8032 5.005 4.536 5.005c1.463 0 2.611-.623 3.451-1.7731l2.1448 1.988c-1.057 1.4315-2.8266 2.6719-5.7484 2.6719-4.5689 0-7.77-3.325-7.77-7.8925zm24.9186 7.5215v-1.617c-1.1186 1.2754-2.8588 1.988-4.8475 1.988-2.4549 0-5.222-1.645-5.222-4.9714 0-3.4482 2.7671-4.8769 5.222-4.8769 2.0202 0 3.7604.6531 4.8475 1.9264v-2.2379c0-1.7402-1.428-2.7972-3.5105-2.7972-1.6786 0-3.1388.623-4.445 1.8956l-1.3356-2.268c1.7402-1.6471 3.9144-2.4255 6.307-2.4255 3.325 0 6.2475 1.3986 6.2475 5.439v9.9449zm0-3.4181v-2.2708c-.7455-1.0234-2.1448-1.5512-3.5735-1.5512-1.834 0-3.2004 1.0549-3.2004 2.702 0 1.617 1.3699 2.674 3.2032 2.674 1.4294 0 2.828-.5292 3.5735-1.554zm6.8642 3.4181v-15.0094h3.2634v2.2071c1.12-1.4315 2.9211-2.548 4.879-2.548v3.2312c-.28-.063-.623-.0931-1.0255-.0931-1.365 0-3.199.9345-3.85 1.9915v10.2228h-3.2641zm9.2274-7.5215c0-4.3491 3.1696-7.8624 7.6132-7.8624 4.5059 0 7.3969 3.451 7.3969 8.1739v.777h-11.5913c.2478 2.2694 1.9565 4.1328 4.7859 4.1328 1.4602 0 3.2004-.588 4.256-1.645l1.491 2.1448c-1.491 1.4322-3.696 2.1756-6.09 2.1756-4.5066 0-7.861-3.136-7.861-7.8925zm7.6132-5.187c-2.7965 0-4.0705 2.142-4.2266 3.976h8.4532c-.0616-1.771-1.274-3.976-4.2266-3.976zm28.2751 12.7085v-10.5049c0-2.1112-.9016-3.4174-3.0149-3.4174-1.617 0-3.4489 1.1802-4.2882 2.548v11.3764h-1.6464v-10.507c0-2.1112-.8708-3.4174-3.0156-3.4174-1.5841 0-3.3859 1.2131-4.2875 2.5788v11.3435h-1.617v-15.0094h1.617v2.268c.6216-.9625 2.6719-2.6425 4.8475-2.6425 2.331 0 3.5735 1.3685 3.9466 2.828.8386-1.3965 2.8588-2.828 4.9721-2.828 2.7664 0 4.102 1.554 4.102 4.571v10.8129zm5.1541-7.5215c0-4.3491 3.0758-7.8624 7.2408-7.8624 4.5682 0 7.084 3.6365 7.084 7.9555v.4368h-12.5524c.154 3.262 2.3296 5.964 5.8716 5.964 1.897 0 3.6365-.714 4.9105-2.0839l.84 1.057c-1.4924 1.554-3.388 2.4234-5.8751 2.4234-4.382 0-7.5194-3.262-7.5194-7.8932zm7.21-6.4638c-3.5434 0-5.3151 3.1094-5.439 5.719h10.9081c-.028-2.548-1.708-5.719-5.467-5.719zm9.3478 11.9966.9639-1.2131c.9607 1.2131 2.7317 2.2071 4.8437 2.2071 2.518 0 4.011-1.3055 4.011-3.045 0-4.102-9.4777-1.8018-9.4777-7.1778 0-2.3002 1.9577-4.1664 5.3447-4.1664 2.579 0 4.288.994 5.376 2.2078l-.901 1.1501c-.872-1.1809-2.485-1.9894-4.476-1.9894-2.331 0-3.76 1.1802-3.76 2.7349 0 3.759 9.478 1.4616 9.478 7.2401 0 2.4234-1.865 4.4121-5.625 4.4121-2.425 0-4.289-.714-5.7818-2.3604zm13.6396 0 .963-1.2131c.964 1.2131 2.734 2.2071 4.849 2.2071 2.517 0 4.008-1.3055 4.008-3.045 0-4.102-9.478-1.8018-9.478-7.1778 0-2.3002 1.958-4.1664 5.345-4.1664 2.583 0 4.291.994 5.376 2.2078l-.898 1.1501c-.87-1.1809-2.487-1.9894-4.475-1.9894-2.33 0-3.759 1.1802-3.759 2.7349 0 3.759 9.478 1.4616 9.478 7.2401 0 2.4234-1.865 4.4121-5.625 4.4121-2.425 0-4.29-.714-5.782-2.3604zm24.486 1.988v-1.7682c-1.337 1.4588-3.015 2.142-5.096 2.142-2.58 0-5.253-1.771-5.253-5.0022 0-3.262 2.642-4.9721 5.252-4.9721 2.082 0 3.791.6839 5.096 2.1455v-3.045c0-2.2386-1.803-3.4489-4.04-3.4489-1.864 0-3.325.6531-4.692 2.205l-.898-1.1179c1.554-1.68 3.294-2.52 5.78-2.52 3.045 0 5.47 1.463 5.47 4.816v10.57h-1.617zm0-2.9526v-3.2921c-1.057-1.3685-2.735-2.0818-4.538-2.0818-2.487 0-4.102 1.5876-4.102 3.7296 0 2.114 1.615 3.6988 4.102 3.6988 1.803 0 3.48-.6832 4.537-2.051zm6.056 6.776.931-1.2439c1.304 1.5575 2.733 2.1175 4.97 2.1175 2.735 0 5.129-1.3685 5.129-4.8188v-2.3611c-1.057 1.5218-2.985 2.7979-5.222 2.7979-3.978 0-6.713-3.017-6.713-7.833 0-4.753 2.735-7.8624 6.713-7.8624 2.144 0 4.008 1.092 5.222 2.8v-2.429h1.646v14.854c0 4.6004-3.108 6.2475-6.776 6.2475-2.517 0-4.134-.4676-5.904-2.2708zm11.032-7.707v-7.3038c-.873-1.4616-2.861-2.7349-4.942-2.7349-3.325 0-5.254 2.765-5.254 6.4015s1.927 6.37 5.252 6.37c2.082 0 4.071-1.2726 4.942-2.7342zm5.152-3.6372c0-4.3491 3.076-7.8624 7.241-7.8624 4.568 0 7.084 3.6365 7.084 7.9555v.4368h-12.553c.154 3.262 2.331 5.964 5.873 5.964 1.897 0 3.637-.714 4.911-2.0839l.839 1.057c-1.491 1.554-3.388 2.4234-5.873 2.4234-4.382 0-7.521-3.262-7.521-7.8932zm7.21-6.4638c-3.542 0-5.315 3.1094-5.439 5.719h10.908c-.032-2.548-1.708-5.719-5.469-5.719zm14.441-6.7571v8.6835h-1.253v-8.6828h-2.777v-1.1662h6.807v1.1655h-2.779zm12.719 8.6835v-8.148l-3.36 8.148h-.357l-3.36-8.148v8.148h-1.253v-9.849h1.925l2.865 7.1645 2.869-7.1645h1.925v9.849h-1.253z" fill="#1f304c"/></g></svg>

<svg width="195" height="28" viewBox="0 0 195 28" fill="none" xmlns="http://www.w3.org/2000/svg">
<g clip-path="url(#clip0)">
<path d="M0 14.3864C0 9.849 3.2004 6.524 7.7686 6.524C10.6904 6.524 12.4607 7.7672 13.5177 9.198L11.3757 11.1874C10.5357 10.0044 9.3877 9.4143 7.9247 9.4143C5.1919 9.4143 3.3887 11.4653 3.3887 14.3843C3.3887 17.3033 5.1919 19.3893 7.9247 19.3893C9.3877 19.3893 10.5357 18.7663 11.3757 17.6162L13.5205 19.6042C12.4635 21.0357 10.6939 22.2761 7.7721 22.2761C3.2032 22.2761 0.0021 18.9511 0.0021 14.3836L0 14.3864ZM24.9186 21.9079V20.2909C23.8 21.5663 22.0598 22.2789 20.0711 22.2789C17.6162 22.2789 14.8491 20.6339 14.8491 17.3075C14.8491 13.8593 17.6162 12.4306 20.0711 12.4306C22.0913 12.4306 23.8315 13.0837 24.9186 14.357V12.1191C24.9186 10.3789 23.4906 9.3219 21.4081 9.3219C19.7295 9.3219 18.2693 9.9449 16.9631 11.2175L15.6275 8.9495C17.3677 7.3024 19.5419 6.524 21.9345 6.524C25.2595 6.524 28.182 7.9226 28.182 11.963V21.9079H24.9186ZM24.9186 18.4898V16.219C24.1731 15.1956 22.7738 14.6678 21.3451 14.6678C19.5111 14.6678 18.1447 15.7227 18.1447 17.3698C18.1447 18.9868 19.5146 20.0438 21.3479 20.0438C22.7773 20.0438 24.1759 19.5146 24.9214 18.4898H24.9186ZM31.7828 21.9079V6.8985H35.0462V9.1056C36.1662 7.6741 37.9673 6.5576 39.9252 6.5576V9.7888C39.6452 9.7258 39.3022 9.6957 38.8997 9.6957C37.5347 9.6957 35.7007 10.6302 35.0497 11.6872V21.91H31.7856L31.7828 21.9079ZM41.0102 14.3864C41.0102 10.0373 44.1798 6.524 48.6234 6.524C53.1293 6.524 56.0203 9.975 56.0203 14.6979V15.4749H44.429C44.6768 17.7443 46.3855 19.6077 49.2149 19.6077C50.6751 19.6077 52.4153 19.0197 53.4709 17.9627L54.9619 20.1075C53.4709 21.5397 51.2659 22.2831 48.8719 22.2831C44.3653 22.2831 41.0109 19.1471 41.0109 14.3906L41.0102 14.3864ZM48.6234 9.1994C45.8269 9.1994 44.5529 11.3414 44.3968 13.1754H52.85C52.7884 11.4044 51.576 9.1994 48.6234 9.1994ZM76.8985 21.9079V11.403C76.8985 9.2918 75.9969 7.9856 73.8836 7.9856C72.2666 7.9856 70.4347 9.1658 69.5954 10.5336V21.91H67.949V11.403C67.949 9.2918 67.0782 7.9856 64.9334 7.9856C63.3493 7.9856 61.5475 9.1987 60.6459 10.5644V21.9079H59.0289V6.8985H60.6459V9.1665C61.2675 8.204 63.3178 6.524 65.4934 6.524C67.8244 6.524 69.0669 7.8925 69.44 9.352C70.2786 7.9555 72.2988 6.524 74.4121 6.524C77.1785 6.524 78.5141 8.078 78.5141 11.095V21.9079H76.8985ZM82.0526 14.3864C82.0526 10.0373 85.1284 6.524 89.2934 6.524C93.8616 6.524 96.3774 10.1605 96.3774 14.4795V14.9163H83.825C83.979 18.1783 86.1546 20.8803 89.6966 20.8803C91.5936 20.8803 93.3331 20.1663 94.6071 18.7964L95.4471 19.8534C93.9547 21.4074 92.0591 22.2768 89.572 22.2768C85.19 22.2768 82.0526 19.0148 82.0526 14.3836V14.3864ZM89.2626 7.9226C85.7192 7.9226 83.9475 11.032 83.8236 13.6416H94.7317C94.7037 11.0936 93.0237 7.9226 89.2647 7.9226H89.2626ZM98.6104 19.9192L99.5743 18.7061C100.535 19.9192 102.306 20.9132 104.418 20.9132C106.936 20.9132 108.429 19.6077 108.429 17.8682C108.429 13.7662 98.9513 16.0664 98.9513 10.6904C98.9513 8.3902 100.909 6.524 104.296 6.524C106.875 6.524 108.584 7.518 109.672 8.7318L108.771 9.8819C107.899 8.701 106.286 7.8925 104.295 7.8925C101.964 7.8925 100.535 9.0727 100.535 10.6274C100.535 14.3864 110.013 12.089 110.013 17.8675C110.013 20.2909 108.148 22.2796 104.388 22.2796C101.963 22.2796 100.099 21.5656 98.6062 19.9192H98.6104ZM112.25 19.9192L113.213 18.7061C114.177 19.9192 115.947 20.9132 118.062 20.9132C120.579 20.9132 122.07 19.6077 122.07 17.8682C122.07 13.7662 112.592 16.0664 112.592 10.6904C112.592 8.3902 114.55 6.524 117.937 6.524C120.52 6.524 122.228 7.518 123.313 8.7318L122.415 9.8819C121.545 8.701 119.928 7.8925 117.94 7.8925C115.61 7.8925 114.181 9.0727 114.181 10.6274C114.181 14.3864 123.659 12.089 123.659 17.8675C123.659 20.2909 121.794 22.2796 118.034 22.2796C115.609 22.2796 113.744 21.5656 112.252 19.9192H112.25ZM136.736 21.9072V20.139C135.399 21.5978 133.721 22.281 131.64 22.281C129.06 22.281 126.387 20.51 126.387 17.2788C126.387 14.0168 129.029 12.3067 131.639 12.3067C133.721 12.3067 135.43 12.9906 136.735 14.4522V11.4072C136.735 9.1686 134.932 7.9583 132.695 7.9583C130.831 7.9583 129.37 8.6114 128.003 10.1633L127.105 9.0454C128.659 7.3654 130.399 6.5254 132.885 6.5254C135.93 6.5254 138.355 7.9884 138.355 11.3414V21.9114H136.738L136.736 21.9072ZM136.736 18.9546V15.6625C135.679 14.294 134.001 13.5807 132.198 13.5807C129.711 13.5807 128.096 15.1683 128.096 17.3103C128.096 19.4243 129.711 21.0091 132.198 21.0091C134.001 21.0091 135.678 20.3259 136.735 18.9581L136.736 18.9546ZM142.792 25.7306L143.723 24.4867C145.027 26.0442 146.456 26.6042 148.693 26.6042C151.428 26.6042 153.822 25.2357 153.822 21.7854V19.4243C152.765 20.9461 150.837 22.2222 148.6 22.2222C144.622 22.2222 141.887 19.2052 141.887 14.3892C141.887 9.6362 144.622 6.5268 148.6 6.5268C150.744 6.5268 152.608 7.6188 153.822 9.3268V6.8978H155.468V21.7518C155.468 26.3522 152.36 27.9993 148.692 27.9993C146.175 27.9993 144.558 27.5317 142.788 25.7285L142.792 25.7306ZM153.824 18.0236V10.7198C152.951 9.2582 150.963 7.9849 148.882 7.9849C145.557 7.9849 143.628 10.7499 143.628 14.3864C143.628 18.0229 145.555 20.7564 148.88 20.7564C150.962 20.7564 152.951 19.4838 153.822 18.0222L153.824 18.0236ZM158.976 14.3864C158.976 10.0373 162.052 6.524 166.217 6.524C170.785 6.524 173.301 10.1605 173.301 14.4795V14.9163H160.748C160.902 18.1783 163.079 20.8803 166.621 20.8803C168.518 20.8803 170.258 20.1663 171.532 18.7964L172.371 19.8534C170.88 21.4074 168.983 22.2768 166.498 22.2768C162.116 22.2768 158.977 19.0148 158.977 14.3836L158.976 14.3864ZM166.186 7.9226C162.644 7.9226 160.871 11.032 160.747 13.6416H171.655C171.623 11.0936 169.947 7.9226 166.186 7.9226H166.186ZM180.627 1.1655V9.849H179.374V1.1662H176.597V0H183.404V1.1655H180.625H180.627ZM193.346 9.849V1.701L189.986 9.849H189.629L186.269 1.701V9.849H185.016V0H186.941L189.806 7.1645L192.675 0H194.6V9.849H193.347H193.346Z" fill="#1F304C"/>
</g>
<defs>
<clipPath id="clip0">
<rect width="194.6" height="28" fill="white"/>
</clipPath>
</defs>
</svg>
